X:106
T:Clyde's Banks
M:4/4
L:1/8
R:reel
N:Learned from Kira Ott (through sheet music)
Z:Kira Ott
K:A
A2cA Bcdf|eccA BEE2|A2cA Bcdf|ecac B2cB|
A2cA Bcdf|ecc2 Bcdf|ecc2 acec|1 acec B2cB:|2 acec B2cd|
|:e2ef edcB|A2ag fefa|e2ef ecAc|BABc B2cd|
e2ef edcB|A2ag fefa|1 ecc2 acec|acec B2cd:|2 agfe (3fga ec|acec B2cB||
